X: 6455
T: Cat In The Basket, The
R: jig
M: 6/8
K: Dmajor
EFG FED|EFG FGA|BGD AFD|GED CB,A,|
EFG FGA|BGD AFD|GED CA,A|GEC D2A,:|
GED CAG|EDC AGE|DCA GED|CAG FDA|
GED CAG|EDC AFG|EDC BGA|EGC D2A,:|

